X: 155
T: Yao sanbai
L: 1/8
M: 3/8
K: G
A B A [I:setbarnb 1]| 
A G/ F/ E | 
A A A/ B/ | 
A3 | 
A G/ F/ E | 
D3 | 
E A G | 
A B/ A/ G | 
[M:2/8]E/ D/ C | 
[M:3/8]D2G | 
E D C/ B,/ | 
A,3 |]

@@@ Tune index: 9029
